X: 14132
T: Frieze Breeches, The
R: jig
M: 6/8
K: Dmajor
|:a|cBA Bcd|eaa ged|eAe ed2|cGc dBA|
cBA Bcd|eaa ged|ccc dBe|A2 A3:|
|:eaa aae|faf ecA|eAe ed2|cGc dBA|
aaa ae2|faf ecA|cGc dBe|A3 A3:|
|:eAB cBA|Ace aed|eAe ed2|cGc dBA|
AAB cBA|Ace aed|cGc dBe|A3 A3:|
|:a|cBA Bcd|eaa ged|cee dee|cee dcB|
cBA Bcd|eaa ged|ccc dBe|A2 A3:|
|:a|cBA Bcd|eaa gaa|eaa gaa|Baa caa|
cBA Bcd|eaa ged|ccc dBe|A2 A3:|

